; generated by PrusaSlicer 2.5.0+linux-x64-GTK3 on 2023-01-15 at 22:19:29 UTC


;
;

;
;
; 

; external perimeters extrusion width = 0.45mm
; perimeters extrusion width = 0.45mm
; infill extrusion width = 0.45mm
; solid infill extrusion width = 0.45mm
; top infill extrusion width = 0.40mm
; first layer extrusion width = 0.42mm

M73 P0 R72
M201 X2500 Y2500 Z400 E5000 ; sets maximum accelerations, mm/sec^2
M203 X180 Y180 Z12 E80 ; sets maximum feedrates, mm / sec
M204 P1250 R1250 T2500 ; sets acceleration (P, T) and retract acceleration (R), mm/sec^2
M205 X8.00 Y8.00 Z2.00 E10.00 ; sets the jerk limits, mm/sec
M205 S0 T0 ; sets the minimum extruding and travel feed rate, mm/sec
M107
;TYPE:Custom
M862.3 P "MINI" ; printer model check
G90 ; use absolute coordinates
M83 ; extruder relative mode
M104 S170 ; set extruder temp for bed leveling
M140 S60 ; set bed temp
M109 R170 ; wait for bed leveling temp
M190 S60 ; wait for bed temp
M204 T1250 ; set travel acceleration
G28 ; home all without mesh bed level
G29 ; mesh bed leveling 
M204 T2500 ; restore travel acceleration
M104 S215 ; set extruder temp
G92 E0
G1 Y-2 X179 F2400
G1 Z3 F720
M109 S215 ; wait for extruder temp

; intro line
G1 X170 F1000
G1 Z0.2 F720
G1 X110 E8 F900
G1 X40 E10 F700
G92 E0

M221 S95 ; set flow
G21 ; set units to millimeters
G90 ; use absolute coordinates
M83 ; use relative distances for extrusion
M900 K0.2 ; Filament gcode LA 1.5
; ; Filament gcode LA 1.0
M107
;LAYER_CHANGE
;Z:0.2
;HEIGHT:0.2
;BEFORE_LAYER_CHANGE
G92 E0.0
;0.2


G1 E-3.2 F4200
G1 Z.2 F720
;AFTER_LAYER_CHANGE
;0.2
G1 Z.4
G1 X53.175 Y63.449 F9000
G1 Z.2 F720
G1 E3.2 F2400
M204 P800
;TYPE:Skirt/Brim
;WIDTH:0.42
G1 F1200
G1 X53.81 Y62.917 E.026
G1 X54.75 Y62.723 E.03008
G1 X125.25 Y62.723 E2.21048
G1 X126.557 Y63.115 E.04278
M73 P0 R71
G1 X127.433 Y64.16 E.04278
G1 X127.627 Y65.1 E.03008
G1 X127.605 Y69.423 E.13554
G1 X122.422 Y107.139 E1.19369
G1 X122.219 Y108.05 E.02925
G1 X121.785 Y109.385 E.04401
G1 X121.419 Y110.23 E.02886
G1 X120.743 Y111.462 E.04406
G1 X120.223 Y112.228 E.02906
G1 X119.323 Y113.317 E.0443
G1 X118.667 Y113.973 E.02906
G1 X117.585 Y114.868 E.04406
G1 X116.147 Y115.781 E.0534
G1 X114.145 Y116.647 E.06837
G1 X112.642 Y117.043 E.04873
G1 X110.953 Y117.256 E.0534
G1 X69.047 Y117.256 E1.31391
G1 X68.125 Y117.169 E.02906
G1 X66.6 Y116.869 E.04873
G1 X65.125 Y116.379 E.04873
G1 X63.853 Y115.781 E.04406
G1 X63.04 Y115.299 E.02965
G1 X61.804 Y114.388 E.04814
G1 X60.677 Y113.317 E.04873
G1 X59.781 Y112.235 E.04406
G1 X58.941 Y110.928 E.04873
G1 X58.271 Y109.527 E.04868
G1 X57.957 Y108.653 E.0291
G1 X57.579 Y107.146 E.04873
G1 X52.395 Y69.423 E1.19389
G1 X52.373 Y65.1 E.13554
G1 X52.765 Y63.793 E.04278
G1 X53.129 Y63.488 E.0149
M204 P1000
; printing object battery_holder.stl id:0 copy 0
G1 E-2.24 F4200
;WIPE_START
G1 F7200
G1 X53.81 Y62.917 E-.4928
G1 X54.551 Y62.764 E-.4192
;WIPE_END
G1 E-.048 F4200
G1 Z.4 F720
G1 X119.816 Y67.967 F9000
G1 Z.2 F720
G1 E3.2 F2400
M204 P800
;TYPE:Perimeter
;WIDTH:0.419999
G1 F1200
G1 X119.585 Y68.047 E.00766
G1 X119.274 Y68.313 E.01282
G1 X119.124 Y68.615 E.01057
G1 X119.086 Y68.879 E.00836
G1 X119.086 Y104.882 E1.12885
G1 X119.068 Y105.455 E.01798
G1 X119.016 Y106.007 E.0174
G1 X118.929 Y106.556 E.0174
G1 X118.808 Y107.097 E.0174
G1 X118.653 Y107.63 E.0174
G1 X118.465 Y108.152 E.0174
G1 X118.244 Y108.662 E.0174
G1 X117.992 Y109.156 E.0174
G1 X117.71 Y109.634 E.0174
G1 X117.398 Y110.093 E.0174
G1 X117.058 Y110.532 E.0174
G1 X116.691 Y110.948 E.0174
G1 X116.298 Y111.341 E.0174
G1 X115.882 Y111.708 E.0174
G1 X115.443 Y112.048 E.0174
G1 X114.984 Y112.36 E.0174
G1 X114.506 Y112.642 E.0174
G1 X114.012 Y112.894 E.0174
G1 X113.502 Y113.115 E.0174
G1 X112.98 Y113.303 E.0174
G1 X112.447 Y113.458 E.0174
G1 X111.906 Y113.579 E.0174
G1 X111.357 Y113.666 E.0174
G1 X110.805 Y113.718 E.0174
G1 X110.232 Y113.736 E.01798
G1 X69.768 Y113.736 E1.2687
G1 X69.195 Y113.718 E.01798
G1 X68.643 Y113.666 E.0174
G1 X68.094 Y113.579 E.0174
G1 X67.553 Y113.458 E.0174
G1 X67.02 Y113.303 E.0174
G1 X66.498 Y113.115 E.0174
G1 X65.988 Y112.894 E.0174
G1 X65.494 Y112.642 E.0174
G1 X65.016 Y112.36 E.0174
G1 X64.557 Y112.048 E.0174
G1 X64.118 Y111.708 E.0174
G1 X63.702 Y111.341 E.0174
G1 X63.309 Y110.948 E.0174
G1 X62.942 Y110.532 E.0174
G1 X62.602 Y110.093 E.0174
G1 X62.29 Y109.634 E.0174
G1 X62.008 Y109.156 E.0174
G1 X61.756 Y108.662 E.0174
G1 X61.535 Y108.152 E.0174
G1 X61.347 Y107.63 E.0174
G1 X61.192 Y107.097 E.0174
G1 X61.071 Y106.556 E.0174
G1 X60.984 Y106.007 E.0174
G1 X60.932 Y105.455 E.0174
G1 X60.914 Y104.882 E.01798
G1 X60.914 Y68.879 E1.12885
G1 X60.876 Y68.615 E.00836
G1 X60.726 Y68.313 E.01057
G1 X60.415 Y68.047 E.01282
G1 X59.971 Y67.936 E.01434
G1 X55.914 Y67.936 E.12721
G1 X55.914 Y66.264 E.05241
G1 X124.086 Y66.264 E2.13747
G1 X124.086 Y67.936 E.05241
G1 X120.029 Y67.936 E.12721
G1 X119.873 Y67.949 E.0049
M204 P1000
G1 X119.942 Y68.335 F9000
M204 P800
G1 F1200
G1 X119.762 Y68.379 E.0058
G1 X119.576 Y68.539 E.00769
G1 X119.486 Y68.72 E.00634
G1 X119.463 Y68.879 E.00502
G1 X119.463 Y104.888 E1.12904
G1 X119.444 Y105.478 E.01853
G1 X119.39 Y106.055 E.01815
G1 X119.299 Y106.626 E.01815
G1 X119.173 Y107.191 E.01815
G1 X119.012 Y107.747 E.01815
G1 X118.816 Y108.291 E.01815
G1 X118.586 Y108.822 E.01815
G1 X118.323 Y109.338 E.01815
G1 X118.028 Y109.836 E.01815
G1 X117.703 Y110.315 E.01815
G1 X117.348 Y110.772 E.01815
G1 X116.966 Y111.206 E.01815
G1 X116.556 Y111.616 E.01814
G1 X116.122 Y111.998 E.01815
G1 X115.665 Y112.353 E.01815
G1 X115.186 Y112.678 E.01815
G1 X114.688 Y112.973 E.01815
G1 X114.172 Y113.236 E.01815
G1 X113.641 Y113.466 E.01815
G1 X113.097 Y113.662 E.01815
G1 X112.541 Y113.823 E.01815
G1 X111.976 Y113.949 E.01815
G1 X111.405 Y114.04 E.01815
G1 X110.828 Y114.094 E.01815
G1 X110.238 Y114.113 E.01853
G1 X69.762 Y114.113 E1.26907
G1 X69.172 Y114.094 E.01853
M73 P1 R71
G1 X68.595 Y114.04 E.01815
G1 X68.024 Y113.949 E.01815
G1 X67.459 Y113.823 E.01815
G1 X66.903 Y113.662 E.01815
G1 X66.359 Y113.466 E.01815
G1 X65.828 Y113.236 E.01815
G1 X65.312 Y112.973 E.01815
G1 X64.814 Y112.678 E.01815
G1 X64.335 Y112.353 E.01815
G1 X63.878 Y111.998 E.01815
G1 X63.444 Y111.616 E.01815
G1 X63.034 Y111.206 E.01815
G1 X62.652 Y110.772 E.01815
G1 X62.297 Y110.315 E.01815
G1 X61.972 Y109.836 E.01815
G1 X61.677 Y109.338 E.01815
G1 X61.414 Y108.822 E.01815
G1 X61.184 Y108.291 E.01815
G1 X60.988 Y107.747 E.01815
G1 X60.827 Y107.191 E.01815
G1 X60.701 Y106.626 E.01815
G1 X60.61 Y106.055 E.01815
G1 X60.556 Y105.478 E.01815
G1 X60.537 Y104.888 E.01853
G1 X60.537 Y68.879 E1.12904
G1 X60.514 Y68.72 E.00502
G1 X60.424 Y68.539 E.00634
G1 X60.238 Y68.379 E.00769
G1 X59.971 Y68.313 E.0086
G1 X55.537 Y68.313 E.13904
G1 X55.537 Y65.887 E.07606
G1 X124.463 Y65.887 E2.16112
G1 X124.463 Y68.313 E.07606
G1 X120 Y68.32 E.13993
M204 P1000
G1 X120.029 Y68.69 F9000
M204 P800
;TYPE:External perimeter
G1 F1200
G1 X119.878 Y68.765 E.00529
G1 X119.84 Y68.879 E.00374
G1 X119.84 Y104.894 E1.12922
G1 X119.821 Y105.502 E.01909
G1 X119.764 Y106.102 E.01889
G1 X119.67 Y106.697 E.01889
G1 X119.539 Y107.285 E.01889
G1 X119.37 Y107.863 E.01889
G1 X119.166 Y108.43 E.01889
G1 X118.927 Y108.983 E.01889
G1 X118.654 Y109.52 E.01889
G1 X118.347 Y110.038 E.01889
G1 X118.008 Y110.537 E.01889
G1 X117.639 Y111.013 E.01889
G1 X117.241 Y111.465 E.01889
G1 X116.815 Y111.891 E.01889
G1 X116.363 Y112.289 E.01889
G1 X115.887 Y112.658 E.01889
G1 X115.388 Y112.997 E.01889
G1 X114.87 Y113.304 E.01889
G1 X114.333 Y113.577 E.01889
G1 X113.78 Y113.816 E.01889
G1 X113.213 Y114.02 E.01889
G1 X112.635 Y114.189 E.01889
G1 X112.047 Y114.32 E.01889
G1 X111.452 Y114.414 E.01889
G1 X110.852 Y114.471 E.01889
G1 X110.244 Y114.49 E.01909
G1 X69.756 Y114.49 E1.26944
G1 X69.148 Y114.471 E.01909
G1 X68.548 Y114.414 E.01889
G1 X67.953 Y114.32 E.01889
G1 X67.365 Y114.189 E.01889
G1 X66.787 Y114.02 E.01889
G1 X66.22 Y113.816 E.01889
G1 X65.667 Y113.577 E.01889
G1 X65.13 Y113.304 E.01889
G1 X64.612 Y112.997 E.01889
G1 X64.113 Y112.658 E.01889
G1 X63.637 Y112.289 E.01889
G1 X63.185 Y111.891 E.01889
G1 X62.759 Y111.465 E.01889
G1 X62.361 Y111.013 E.01889
G1 X61.992 Y110.537 E.01889
G1 X61.653 Y110.038 E.01889
G1 X61.346 Y109.52 E.01889
G1 X61.073 Y108.983 E.01889
G1 X60.834 Y108.43 E.01889
G1 X60.63 Y107.863 E.01889
G1 X60.461 Y107.285 E.01889
G1 X60.33 Y106.697 E.01889
G1 X60.236 Y106.102 E.01889
G1 X60.179 Y105.502 E.01889
G1 X60.16 Y104.894 E.01909
G1 X60.16 Y68.879 E1.12922
G1 X60.122 Y68.765 E.00374
G1 X59.971 Y68.69 E.00529
G1 X55.16 Y68.69 E.15086
G1 X55.16 Y65.51 E.09971
G1 X124.84 Y65.51 E2.18476
G1 X124.84 Y68.69 E.09971
G1 X120.089 Y68.69 E.14898
M204 P1000
G1 X119.884 Y68.603 F9000
G1 E-2.24 F4200
;WIPE_START
G1 F7200
G1 X119.878 Y68.765 E-.12409
G1 X119.84 Y68.879 E-.06608
G1 X119.84 Y70.181 E-.72183
;WIPE_END
G1 E-.048 F4200
G1 Z.4 F720
G1 X76.304 Y68.217 F9000
G1 Z.2 F720
G1 E3.2 F2400
M204 P800
;TYPE:Perimeter
G1 F1200
G1 X77.342 Y68.05 E.03295
G1 X78.43 Y67.988 E.03419
G1 X79.558 Y68.04 E.03541
G1 X80.658 Y68.208 E.03489
G1 X81.827 Y68.522 E.03792
G1 X82.862 Y68.924 E.03483
G1 X83.849 Y69.433 E.03483
G1 X84.778 Y70.043 E.03483
G1 X85.565 Y70.68 E.03174
G1 X86.354 Y71.462 E.03483
G1 X87.057 Y72.322 E.03483
G1 X87.667 Y73.251 E.03483
G1 X88.176 Y74.238 E.03483
G1 X88.578 Y75.273 E.03483
G1 X88.871 Y76.345 E.03483
G1 X89.06 Y77.54 E.03792
G1 X89.113 Y78.649 E.03483
G1 X89.05 Y79.758 E.03483
G1 X88.871 Y80.855 E.03483
G1 X88.578 Y81.927 E.03483
G1 X88.176 Y82.962 E.03483
G1 X87.667 Y83.949 E.03483
G1 X87.057 Y84.878 E.03483
G1 X86.42 Y85.665 E.03174
G1 X85.638 Y86.454 E.03483
G1 X84.698 Y87.215 E.03792
G1 X83.764 Y87.816 E.03483
G1 X82.772 Y88.316 E.03483
G1 X81.827 Y88.678 E.03174
G1 X80.755 Y88.971 E.03483
G1 X79.658 Y89.15 E.03483
G1 X78.549 Y89.213 E.03483
G1 X77.44 Y89.16 E.03483
G1 X76.342 Y88.992 E.03483
G1 X75.267 Y88.709 E.03483
G1 X74.228 Y88.316 E.03483
G1 X73.236 Y87.816 E.03483
G1 X72.489 Y87.337 E.02783
G1 X71.931 Y86.921 E.02182
G1 X71.435 Y86.52 E.01999
G1 X70.632 Y85.724 E.03545
G1 X69.996 Y84.945 E.03154
G1 X69.522 Y84.239 E.02666
G1 X69.085 Y83.474 E.02761
G1 X68.824 Y82.962 E.01803
G1 X68.391 Y81.833 E.03792
G1 X68.129 Y80.855 E.03174
G1 X67.95 Y79.758 E.03483
G1 X67.887 Y78.649 E.03483
G1 X67.943 Y77.518 E.03553
G1 X68.108 Y76.442 E.03413
G1 X68.422 Y75.273 E.03792
G1 X68.824 Y74.238 E.03483
G1 X69.333 Y73.251 E.03483
G1 X69.885 Y72.402 E.03174
G1 X70.58 Y71.535 E.03483
G1 X71.362 Y70.746 E.03483
G1 X72.222 Y70.043 E.03483
G1 X73.151 Y69.433 E.03483
G1 X74.138 Y68.924 E.03483
G1 X75.173 Y68.522 E.03483
G1 X76.245 Y68.229 E.03483
M204 P1000
G1 X76.382 Y68.585 F9000
M204 P800
G1 F1200
G1 X77.401 Y68.423 E.03234
G1 X78.508 Y68.364 E.03477
G1 X79.539 Y68.416 E.03238
G1 X80.599 Y68.581 E.03363
G1 X81.691 Y68.874 E.03545
G1 X82.691 Y69.26 E.0336
G1 X83.644 Y69.75 E.0336
G1 X84.541 Y70.336 E.0336
G1 X85.372 Y71.013 E.0336
G1 X86.127 Y71.772 E.0336
G1 X86.799 Y72.607 E.0336
G1 X87.38 Y73.507 E.0336
G1 X87.864 Y74.463 E.0336
G1 X88.245 Y75.465 E.0336
G1 X88.507 Y76.443 E.03174
G1 X88.677 Y77.501 E.0336
G1 X88.737 Y78.57 E.0336
G1 X88.684 Y79.641 E.0336
G1 X88.519 Y80.699 E.0336
G1 X88.226 Y81.791 E.03545
G1 X87.84 Y82.791 E.0336
G1 X87.35 Y83.744 E.0336
G1 X86.764 Y84.641 E.0336
G1 X86.127 Y85.428 E.03174
G1 X85.372 Y86.187 E.0336
G1 X84.493 Y86.899 E.03545
G1 X83.593 Y87.48 E.0336
G1 X82.637 Y87.964 E.0336
G1 X81.691 Y88.326 E.03174
G1 X80.657 Y88.607 E.0336
G1 X79.599 Y88.777 E.0336
G1 X78.53 Y88.837 E.0336
G1 X77.459 Y88.784 E.0336
G1 X76.401 Y88.619 E.0336
G1 X75.365 Y88.345 E.0336
G1 X74.363 Y87.964 E.0336
G1 X73.407 Y87.48 E.0336
G1 X72.694 Y87.021 E.0266
G1 X72.168 Y86.628 E.02058
G1 X71.672 Y86.227 E.01999
G1 X70.904 Y85.463 E.03397
G1 X70.29 Y84.707 E.03055
G1 X69.838 Y84.034 E.02543
G1 X69.421 Y83.303 E.02637
G1 X69.16 Y82.791 E.01803
G1 X68.755 Y81.735 E.03545
G1 X68.493 Y80.757 E.03174
G1 X68.323 Y79.699 E.0336
G1 X68.263 Y78.63 E.0336
G1 X68.32 Y77.538 E.03427
G1 X68.481 Y76.501 E.03292
G1 X68.774 Y75.409 E.03545
G1 X69.16 Y74.409 E.0336
G1 X69.65 Y73.456 E.0336
G1 X70.201 Y72.607 E.03174
G1 X70.873 Y71.772 E.0336
G1 X71.628 Y71.013 E.0336
G1 X72.459 Y70.336 E.0336
G1 X73.356 Y69.75 E.0336
G1 X74.309 Y69.26 E.0336
G1 X75.309 Y68.874 E.0336
G1 X76.323 Y68.598 E.03297
M204 P1000
G1 X76.434 Y68.959 F9000
M204 P800
;TYPE:External perimeter
G1 F1200
G1 X77.46 Y68.795 E.03256
G1 X78.47 Y68.741 E.03172
G1 X79.54 Y68.795 E.03361
G1 X80.56 Y68.957 E.03236
G1 X81.556 Y69.226 E.03236
G1 X82.519 Y69.596 E.03236
G1 X83.439 Y70.066 E.03236
G1 X84.304 Y70.629 E.03236
G1 X85.105 Y71.279 E.03236
G1 X85.834 Y72.01 E.03236
G1 X86.472 Y72.798 E.03181
G1 X87.034 Y73.661 E.03229
G1 X87.504 Y74.581 E.03236
G1 X87.874 Y75.544 E.03236
G1 X88.143 Y76.54 E.03236
G1 X88.307 Y77.579 E.03298
G1 X88.36 Y78.61 E.03236
G1 X88.305 Y79.64 E.03236
G1 X88.143 Y80.66 E.03236
G1 X87.874 Y81.656 E.03236
G1 X87.504 Y82.619 E.03236
G1 X87.034 Y83.539 E.03236
G1 X86.471 Y84.404 E.03236
G1 X85.834 Y85.19 E.03174
G1 X85.105 Y85.921 E.03236
G1 X84.288 Y86.583 E.03298
G1 X83.421 Y87.144 E.03236
G1 X82.501 Y87.612 E.03236
G1 X81.556 Y87.974 E.03174
G1 X80.56 Y88.243 E.03236
G1 X79.54 Y88.405 E.03236
G1 X78.507 Y88.46 E.03244
G1 X77.479 Y88.407 E.03228
G1 X76.46 Y88.247 E.03236
G1 X75.462 Y87.981 E.03236
G1 X74.499 Y87.612 E.03236
G1 X73.579 Y87.144 E.03236
G1 X72.9 Y86.704 E.02536
G1 X71.91 Y85.934 E.03933
G1 X71.176 Y85.202 E.03248
G1 X70.583 Y84.47 E.02956
G1 X70.154 Y83.828 E.02419
G1 X69.757 Y83.132 E.02513
G1 X69.496 Y82.619 E.01803
G1 X69.119 Y81.638 E.03298
G1 X68.857 Y80.66 E.03174
G1 X68.695 Y79.64 E.03236
G1 X68.64 Y78.61 E.03236
G1 X68.696 Y77.559 E.03301
G1 X68.853 Y76.56 E.03171
G1 X69.126 Y75.544 E.03298
G1 X69.496 Y74.581 E.03236
G1 X69.966 Y73.661 E.03236
G1 X70.517 Y72.812 E.03174
G1 X71.166 Y72.01 E.03236
G1 X71.895 Y71.279 E.03236
G1 X72.696 Y70.629 E.03236
G1 X73.561 Y70.066 E.03236
G1 X74.481 Y69.596 E.03236
G1 X75.444 Y69.226 E.03236
G1 X76.376 Y68.975 E.03027
M204 P1000
G1 X76.557 Y68.579 F9000
G1 E-2.24 F4200
;WIPE_START
G1 F7200
G1 X77.46 Y68.795 E-.6086
G1 X78.006 Y68.766 E-.3034
;WIPE_END
G1 E-.048 F4200
G1 Z.4 F720
G1 X62.017 Y89.03 F9000
G1 Z.2 F720
G1 E3.2 F2400
M204 P800
;TYPE:Perimeter
G1 F1200
G1 X62.118 Y88.781 E.00844
G1 X62.446 Y88.293 E.01843
G1 X62.869 Y87.885 E.01841
G1 X63.593 Y87.48 E.02604
G1 X63.874 Y87.389 E.00926
G1 X64.453 Y87.297 E.01838
G1 X65.088 Y87.332 E.01992
G1 X65.653 Y87.493 E.01843
G1 X66.172 Y87.769 E.01843
G1 X66.558 Y88.09 E.01575
G1 X66.897 Y88.491 E.01646
G1 X67.082 Y88.781 E.01078
G1 X67.287 Y89.263 E.01642
G1 X67.398 Y89.799 E.01716
G1 X67.372 Y90.538 E.02321
G1 X67.207 Y91.153 E.01995
G1 X66.955 Y91.63 E.01691
G1 X66.553 Y92.122 E.01992
G1 X66.09 Y92.484 E.01843
G1 X65.562 Y92.741 E.01843
G1 X64.992 Y92.884 E.01841
G1 X64.162 Y92.872 E.02604
G1 X63.547 Y92.707 E.01995
G1 X63.028 Y92.431 E.01843
G1 X62.578 Y92.053 E.01843
G1 X62.216 Y91.59 E.01843
G1 X61.959 Y91.062 E.01843
G1 X61.816 Y90.492 E.01843
G1 X61.796 Y89.904 E.01843
G1 X61.898 Y89.326 E.01843
G1 X61.994 Y89.086 E.00811
M204 P1000
G1 X62.256 Y89.459 F9000
M204 P800
G1 F1200
G1 X62.462 Y88.934 E.01769
G1 X62.751 Y88.515 E.01596
G1 X63.121 Y88.166 E.01594
G1 X63.765 Y87.816 E.02297
G1 X64.512 Y87.67 E.02388
G1 X65.048 Y87.707 E.01685
G1 X65.536 Y87.852 E.01596
G1 X65.983 Y88.096 E.01596
G1 X66.37 Y88.427 E.01596
G1 X66.679 Y88.832 E.01596
G1 X66.897 Y89.292 E.01596
G1 X67.015 Y89.786 E.01594
G1 X66.996 Y90.519 E.02297
G1 X66.848 Y91.036 E.01688
G1 X66.604 Y91.483 E.01596
G1 X66.273 Y91.87 E.01596
G1 X65.868 Y92.179 E.01596
G1 X65.408 Y92.397 E.01596
G1 X64.914 Y92.515 E.01594
G1 X64.181 Y92.496 E.02297
G1 X63.664 Y92.348 E.01687
G1 X63.217 Y92.104 E.01596
G1 X62.83 Y91.773 E.01596
G1 X62.521 Y91.368 E.01596
G1 X62.303 Y90.908 E.01596
G1 X62.185 Y90.413 E.01596
G1 X62.173 Y89.904 E.01596
G1 X62.245 Y89.518 E.01232
M204 P1000
G1 X62.583 Y90.459 F9000
M204 P800
;TYPE:External perimeter
G1 F1200
G1 X62.55 Y90.296 E.00522
G1 X62.55 Y89.904 E.01227
G1 X62.648 Y89.445 E.01473
G1 X62.826 Y89.053 E.0135
