; generated by PrusaSlicer 2.6.0+linux-x64-GTK3 on 2023-07-25 at 01:07:01 UTC


;
;

;
;
; 

; external perimeters extrusion width = 0.45mm
; perimeters extrusion width = 0.45mm
; infill extrusion width = 0.45mm
; solid infill extrusion width = 0.45mm
; top infill extrusion width = 0.40mm
; first layer extrusion width = 0.42mm

M73 P0 R31
M201 X2500 Y2500 Z400 E5000 ; sets maximum accelerations, mm/sec^2
M203 X180 Y180 Z12 E80 ; sets maximum feedrates, mm / sec
M204 P2000 R1250 T2500 ; sets acceleration (P, T) and retract acceleration (R), mm/sec^2
M205 X8.00 Y8.00 Z2.00 E10.00 ; sets the jerk limits, mm/sec
M205 S0 T0 ; sets the minimum extruding and travel feed rate, mm/sec
;TYPE:Custom
M862.3 P "MINI" ; printer model check
G90 ; use absolute coordinates
M83 ; extruder relative mode
M104 S170 ; set extruder temp for bed leveling
M140 S60 ; set bed temp
M109 R170 ; wait for bed leveling temp
M190 S60 ; wait for bed temp
M204 T1250 ; set travel acceleration
G28 ; home all without mesh bed level
G29 ; mesh bed leveling 
M204 T2500 ; restore travel acceleration
M104 S215 ; set extruder temp
G92 E0
G1 Y-2 X179 F2400
G1 Z3 F720
M109 S215 ; wait for extruder temp

; intro line
G1 X170 F1000
G1 Z0.2 F720
G1 X110 E8 F900
G1 X40 E10 F700
G92 E0

M221 S95 ; set flow
G21 ; set units to millimeters
G90 ; use absolute coordinates
M83 ; use relative distances for extrusion
M900 K0.2 ; Filament gcode LA 1.5
; ; Filament gcode LA 1.0
M107
;LAYER_CHANGE
;Z:0.2
;HEIGHT:0.2
;BEFORE_LAYER_CHANGE
G92 E0.0
;0.2


G1 E-3.2 F4200
G1 Z.2 F720
;AFTER_LAYER_CHANGE
;0.2
G1 Z.4
G1 X61.176 Y63.5 F9000
G1 Z.2 F720
G1 E3.2 F2400
M204 P600
;TYPE:Skirt/Brim
;WIDTH:0.42
G1 F1200
G1 X62.934 Y62.723 E.05725
G1 X117.066 Y62.723 E1.61241
G1 X118.824 Y63.5 E.05725
M73 P1 R31
G1 X122.008 Y67 E.14094
G1 X122.627 Y68.6 E.0511
G1 X122.627 Y104.9 E1.08125
G1 X122.538 Y106.377 E.04407
G1 X122.393 Y107.292 E.02759
G1 X122.043 Y108.653 E.04186
G1 X121.48 Y110.102 E.0463
G1 X120.739 Y111.468 E.04629
G1 X120.218 Y112.235 E.02762
G1 X119.323 Y113.317 E.04183
G1 X118.196 Y114.388 E.04631
G1 X116.818 Y115.389 E.05073
G1 X114.875 Y116.379 E.06495
G1 X113.255 Y116.906 E.05074
G1 X111.875 Y117.169 E.04185
G1 X110.953 Y117.256 E.02759
G1 X69.675 Y117.276 E1.22953
G1 X68.125 Y117.169 E.04628
M73 P1 R30
G1 X66.745 Y116.906 E.04185
G1 X65.855 Y116.647 E.02761
G1 X64.413 Y116.066 E.04631
G1 X63.182 Y115.389 E.04185
G1 X62.415 Y114.868 E.02762
G1 X61.333 Y113.973 E.04183
G1 X60.262 Y112.846 E.04631
G1 X59.261 Y111.468 E.05073
G1 X58.271 Y109.525 E.06495
G1 X57.744 Y107.905 E.05074
G1 X57.403 Y105.752 E.06493
G1 X57.373 Y68.6 E1.10663
G1 X57.992 Y67 E.0511
G1 X61.135 Y63.545 E.13912
M204 P1000
; printing object battery_cover_text.stl id:0 copy 0
G1 E-2.24 F4200
;WIPE_START
G1 F7200
G1 X62.711 Y62.825 E-.96
;WIPE_END
G1 Z.4 F720
G1 X72.854 Y86.128 F9000
G1 Z.2 F720
G1 E3.2 F2400
M204 P600
;TYPE:External perimeter
;WIDTH:0.62336
G1 F1200
G1 X73.142 Y85.689 E.02407
;WIDTH:0.588402
G1 X73.173 Y85.623 E.00314
M204 P1000
G1 E-2.24 F4200
;WIPE_START
G1 F7200
G1 X73.142 Y85.689 E-.04041
G1 X72.854 Y86.128 E-.29096
;WIPE_END
G1 E-.62863 F4200
G1 Z.4 F720
G1 X70.772 Y86.299 F9000
G1 Z.2 F720
G1 E3.2 F2400
M204 P600
;TYPE:Perimeter
;WIDTH:0.419999
G1 F1200
G1 X70.839 Y86.236 E.00274
G1 X70.189 Y86.294 E.01944
G1 X69.708 Y86.099 E.01546
G1 X69.65 Y86.018 E.00297
G1 X69.572 Y85.741 E.00857
G1 X69.557 Y84.891 E.02532
G1 X69.613 Y84.635 E.00781
G1 X69.758 Y84.448 E.00705
G1 X69.986 Y84.331 E.00763
G1 X70.125 Y84.315 E.00417
G1 X72.053 Y84.324 E.05743
G1 X72.554 Y84.384 E.01503
G1 X73.093 Y84.544 E.01675
G1 X73.242 Y84.617 E.00494
G1 X73.388 Y84.762 E.00613
G1 X73.821 Y84.458 E.01576
G1 X74.054 Y84.354 E.0076
G1 X74.548 Y84.261 E.01497
G1 X75.058 Y84.293 E.01522
G1 X75.504 Y84.428 E.01388
G1 X75.898 Y84.658 E.01359
G1 X76.1 Y84.847 E.00824
G1 X76.169 Y84.619 E.0071
G1 X76.377 Y84.414 E.0087
G1 X76.656 Y84.341 E.00859
G1 X77.643 Y84.341 E.0294
G1 X77.872 Y84.389 E.00697
G1 X78.045 Y84.508 E.00625
G1 X78.114 Y84.594 E.00328
G1 X78.196 Y84.921 E.01004
G1 X78.614 Y84.595 E.01579
G1 X79.111 Y84.407 E.01583
G1 X79.733 Y84.32 E.01871
G1 X80.807 Y84.324 E.03199
G1 X81.313 Y84.384 E.01518
G1 X81.943 Y84.571 E.01957
G1 X82.41 Y84.388 E.01494
G1 X82.913 Y84.342 E.01505
G1 X83.161 Y84.394 E.00755
G1 X83.32 Y84.505 E.00578
G1 X83.44 Y84.678 E.00627
G1 X83.82 Y85.57 E.02888
G1 X84.71 Y85.57 E.02651
G1 X85.091 Y84.678 E.02889
G1 X85.306 Y84.428 E.00982
G1 X85.573 Y84.342 E.00836
G1 X86.1 Y84.385 E.01575
G1 X86.47 Y84.515 E.01168
G1 X87.04 Y84.373 E.0175
G1 X87.476 Y84.324 E.01307
G1 X88.4 Y84.318 E.02752
G1 X89.498 Y84.402 E.0328
G1 X89.714 Y84.464 E.00669
G1 X89.831 Y84.656 E.0067
G1 X89.949 Y84.464 E.00671
G1 X90.324 Y84.382 E.01143
G1 X91.053 Y84.349 E.02174
G1 X91.298 Y84.404 E.00748
G1 X91.556 Y84.678 E.01121
G1 X91.796 Y84.389 E.01119
G1 X92.07 Y84.318 E.00843
G1 X92.779 Y84.317 E.02112
G1 X93.052 Y84.387 E.00839
G1 X93.3 Y84.682 E.01148
G1 X93.562 Y84.399 E.01149
G1 X93.831 Y84.342 E.00819
G1 X94.712 Y84.372 E.02626
G1 X94.926 Y84.423 E.00655
G1 X95.066 Y84.642 E.00774
G1 X95.205 Y84.423 E.00773
G1 X95.443 Y84.371 E.00726
G1 X96.369 Y84.371 E.02758
G1 X96.599 Y84.42 E.007
G1 X96.788 Y84.647 E.0088
G1 X96.967 Y84.411 E.00882
G1 X97.209 Y84.352 E.00742
G1 X98.145 Y84.333 E.02789
G1 X98.319 Y84.357 E.00523
G1 X98.437 Y84.408 E.00383
G1 X98.69 Y84.755 E.01279
G1 X98.936 Y84.403 E.01279
G1 X99.221 Y84.323 E.00882
G1 X100.194 Y84.314 E.02898
G1 X100.413 Y84.358 E.00665
G1 X100.534 Y84.427 E.00415
G1 X100.743 Y84.742 E.01126
G1 X100.947 Y85.557 E.02502
G1 X101.157 Y84.747 E.02492
G1 X101.368 Y84.427 E.01142
G1 X101.65 Y84.317 E.00902
G1 X102.682 Y84.33 E.03074
G1 X102.955 Y84.406 E.00844
G1 X103.205 Y84.752 E.01271
G1 X103.451 Y84.402 E.01274
G1 X103.735 Y84.323 E.00878
G1 X104.708 Y84.314 E.02898
G1 X104.926 Y84.358 E.00662
G1 X105.047 Y84.427 E.00415
G1 X105.256 Y84.742 E.01126
G1 X105.461 Y85.557 E.02503
G1 X105.67 Y84.747 E.02492
G1 X105.881 Y84.427 E.01142
G1 X106.163 Y84.317 E.00902
G1 X107.196 Y84.33 E.03077
G1 X107.467 Y84.405 E.00838
G1 X107.719 Y84.748 E.01268
G1 X107.966 Y84.402 E.01266
G1 X108.248 Y84.323 E.00872
G1 X109.216 Y84.313 E.02883
G1 X109.446 Y84.36 E.00699
G1 X109.657 Y84.518 E.00785
G1 X109.766 Y84.726 E.00699
G1 X110.814 Y88.47 E.11581
G1 X110.821 Y88.749 E.00831
G1 X110.688 Y89.003 E.00854
G1 X110.464 Y89.154 E.00805
G1 X110.034 Y89.186 E.01284
G1 X109.264 Y89.178 E.02294
G1 X109.021 Y89.12 E.00744
G1 X108.894 Y89.035 E.00455
G1 X108.719 Y88.731 E.01045
G1 X108.545 Y89.035 E.01043
G1 X108.31 Y89.161 E.00794
G1 X107.561 Y89.178 E.02232
G1 X107.109 Y89.16 E.01347
G1 X107 Y89.119 E.00347
G1 X106.698 Y88.732 E.01462
G1 X106.4 Y89.122 E.01462
G1 X106.143 Y89.183 E.00787
G1 X104.754 Y89.178 E.04137
G1 X104.509 Y89.121 E.00749
G1 X104.382 Y89.036 E.00455
G1 X104.205 Y88.731 E.0105
G1 X104.03 Y89.036 E.01047
G1 X103.787 Y89.163 E.00817
G1 X103.263 Y89.178 E.01561
G1 X102.736 Y89.178 E.0157
G1 X102.499 Y89.125 E.00723
G1 X102.372 Y89.044 E.00449
G1 X102.185 Y88.732 E.01083
G1 X102.001 Y89.046 E.01084
G1 X101.77 Y89.166 E.00775
G1 X100.24 Y89.178 E.04557
G1 X99.996 Y89.121 E.00746
G1 X99.868 Y89.036 E.00458
G1 X99.692 Y88.731 E.01049
G1 X99.516 Y89.036 E.01049
G1 X99.255 Y89.167 E.0087
G1 X98.217 Y89.178 E.03092
G1 X97.982 Y89.124 E.00718
G1 X97.854 Y89.041 E.00454
G1 X97.671 Y88.732 E.0107
G1 X97.491 Y89.043 E.0107
G1 X97.25 Y89.167 E.00807
G1 X96.048 Y89.184 E.03581
G1 X95.945 Y89.161 E.00314
G1 X95.769 Y88.938 E.00846
;WIDTH:0.389287
G1 X95.593 Y88.716 E.00775
;WIDTH:0.367271
G1 X95.602 Y88.473 E.00623
;WIDTH:0.412622
G1 X95.669 Y88.161 E.00932
;WIDTH:0.457973
G1 X95.736 Y87.848 E.01049
;WIDTH:0.503324
G1 X95.803 Y87.535 E.01164
;WIDTH:0.548674
G1 X95.87 Y87.223 E.01275
;WIDTH:0.597504
G1 X96.007 Y86.728 E.0225
G1 X96.072 Y86.566 E.00765
G1 X95.444 Y86.584 E.02752
G1 X95.38 Y86.532 E.00361
G1 X95.376 Y87.12 E.02576
;WIDTH:0.553581
G1 X95.374 Y87.153 E.00133
;WIDTH:0.548674
G1 X95.351 Y87.472 E.01278
;WIDTH:0.503324
G1 X95.329 Y87.79 E.01159
;WIDTH:0.457973
G1 X95.307 Y88.109 E.01048
;WIDTH:0.412622
G1 X95.284 Y88.428 E.00934
;WIDTH:0.393635
G1 X95.298 Y89.024 E.01652
;WIDTH:0.419999
G1 X95.311 Y89.621 E.01779
G1 X95.283 Y89.799 E.00537
G1 X95.166 Y89.999 E.0069
G1 X94.916 Y90.161 E.00887
G1 X93.606 Y90.187 E.03903
G1 X93.423 Y90.156 E.00553
G1 X93.162 Y89.971 E.00953
G1 X93.074 Y89.814 E.00536
G1 X92.537 Y88.397 E.04514
G1 X92.419 Y88.02 E.01177
G1 X92.303 Y88.399 E.01181
G1 X91.768 Y89.819 E.0452
G1 X91.586 Y90.063 E.00907
G1 X91.347 Y90.171 E.00781
G1 X90.691 Y90.157 E.01954
G1 X90.142 Y90.095 E.01646
G1 X89.976 Y90.049 E.00513
G1 X89.831 Y89.844 E.00748
G1 X89.685 Y90.049 E.0075
G1 X89.106 Y90.152 E.01752
G1 X88.546 Y90.174 E.01669
G1 X88.391 Y90.157 E.00464
G1 X88.084 Y89.959 E.01088
G1 X88.005 Y89.825 E.00463
G1 X87.962 Y89.61 E.00653
G1 X87.95 Y86.357 E.0969
G1 X87.425 Y86.352 E.01564
G1 X86.921 Y86.292 E.01512
G1 X86.552 Y86.187 E.01143
G1 X86.485 Y86.605 E.01261
G1 X86.208 Y87.499 E.02788
G1 X85.261 Y89.834 E.07505
G1 X85.134 Y90.024 E.00681
G1 X84.864 Y90.172 E.00917
G1 X83.669 Y90.177 E.0356
G1 X83.378 Y90.023 E.00981
G1 X83.251 Y89.831 E.00686
G1 X82.456 Y87.844 E.06375
G1 X82.46 Y89.62 E.0529
G1 X82.42 Y89.831 E.0064
G1 X82.293 Y90.023 E.00686
G1 X82.108 Y90.145 E.0066
G1 X81.869 Y90.187 E.00723
G1 X80.107 Y90.187 E.05248
G1 X79.513 Y90.143 E.01774
G1 X78.942 Y89.997 E.01756
G1 X78.492 Y89.756 E.01521
G1 X78.195 Y89.479 E.0121
G1 X77.941 Y89.029 E.01539
G1 X77.848 Y88.468 E.01694
G1 X77.917 Y87.971 E.01495
G1 X78.052 Y87.712 E.0087
G1 X78.265 Y87.468 E.00965
G1 X77.872 Y87.151 E.01504
G1 X77.745 Y86.868 E.00924
G1 X77.65 Y86.429 E.01338
G1 X77.106 Y86.487 E.0163
G1 X76.738 Y86.438 E.01106
G1 X76.781 Y86.942 E.01507
G1 X76.74 Y87.426 E.01447
G1 X76.642 Y87.821 E.01212
G1 X76.464 Y88.221 E.01304
G1 X76.211 Y88.575 E.01296
G1 X75.863 Y88.88 E.01378
G1 X75.493 Y89.081 E.01254
G1 X75.112 Y89.198 E.01187
G1 X74.611 Y89.24 E.01498
G1 X74.135 Y89.183 E.01428
G1 X73.633 Y88.976 E.01617
G1 X73.336 Y88.72 E.01168
G1 X73.211 Y88.884 E.00614
G1 X72.975 Y89 E.00783
G1 X72.448 Y89.118 E.01609
G1 X71.899 Y89.177 E.01645
G1 X71.199 Y89.183 E.02085
G1 X70.188 Y89.189 E.03011
G1 X69.945 Y89.136 E.00741
G1 X69.732 Y88.962 E.00819
G1 X69.634 Y88.753 E.00688
G1 X69.619 Y87.91 E.02511
G1 X69.685 Y87.644 E.00816
G1 X70.6 Y86.462 E.04452
G1 X70.729 Y86.34 E.00529
M204 P1000
G1 E-2.24 F4200
;WIPE_START
G1 F7200
G1 X70.839 Y86.236 E-.08389
G1 X70.189 Y86.294 E-.36164
G1 X69.708 Y86.099 E-.28763
G1 X69.65 Y86.018 E-.05521
G1 X69.572 Y85.741 E-.15947
G1 X69.572 Y85.719 E-.01216
;WIPE_END
G1 Z.4 F720
G1 X72.951 Y87.33 F9000
G1 Z.2 F720
G1 E3.2 F2400
M204 P600
;TYPE:External perimeter
G1 F1200
G1 X73.007 Y87.209 E.00397
G1 X73.122 Y87.155 E.00378
G1 X74.02 Y87.026 E.02702
G1 X74.146 Y87.037 E.00377
G1 X74.251 Y87.167 E.00498
G1 X74.357 Y87.518 E.01092
G1 X74.524 Y87.613 E.00572
G1 X74.802 Y87.584 E.00833
G1 X74.914 Y87.484 E.00447
G1 X75.015 Y87.054 E.01316
G1 X75.021 Y86.517 E.016
G1 X74.937 Y86.117 E.01217
G1 X74.807 Y85.942 E.00649
G1 X74.607 Y85.889 E.00616
G1 X74.406 Y85.941 E.00618
G1 X74.292 Y86.126 E.00647
G1 X74.196 Y86.466 E.01052
G1 X74.039 Y86.532 E.00507
G1 X73.543 Y86.441 E.01502
G1 X73.052 Y86.391 E.0147
;WIDTH:0.460672
G1 X73.012 Y86.338 E.00219
;WIDTH:0.501344
G1 X72.972 Y86.286 E.00238
;WIDTH:0.542016
G1 X72.933 Y86.233 E.00259
;WIDTH:0.582688
G1 X72.893 Y86.181 E.0028
;WIDTH:0.62336
G1 X72.854 Y86.128 E.00302
G1 X72.782 Y86.218 E.00528
;WIDTH:0.582688
G1 X72.71 Y86.309 E.00495
;WIDTH:0.542016
G1 X72.639 Y86.399 E.00452
;WIDTH:0.501344
G1 X72.567 Y86.489 E.00417
;WIDTH:0.460672
G1 X72.495 Y86.58 E.00383
;WIDTH:0.419999
G1 X72.37 Y86.797 E.00746
G1 X72.064 Y87.142 E.01374
G1 X71.725 Y87.437 E.01339
G1 X71.505 Y87.767 E.01181
G1 X72.354 Y87.725 E.02532
G1 X72.843 Y87.773 E.01464
;WIDTH:0.415159
G1 X72.904 Y87.841 E.00269
;WIDTH:0.383527
G1 X72.965 Y87.908 E.00244
;WIDTH:0.385947
G1 X73.002 Y88.172 E.00722
;WIDTH:0.419999
G1 X73.039 Y88.436 E.00794
G1 X72.971 Y88.593 E.0051
G1 X72.435 Y88.734 E.01651
G1 X71.862 Y88.802 E.01719
G1 X70.186 Y88.812 E.04992
G1 X70.048 Y88.753 E.00447
G1 X69.996 Y88.623 E.00417
G1 X69.996 Y87.91 E.02124
G1 X70.036 Y87.794 E.00365
G1 X70.896 Y86.695 E.04157
G1 X71.511 Y86.139 E.0247
G1 X71.824 Y85.743 E.01504
G1 X71.297 Y85.742 E.0157
G1 X70.841 Y85.857 E.01401
G1 X70.155 Y85.919 E.02052
G1 X69.975 Y85.827 E.00602
G1 X69.934 Y84.884 E.02812
G1 X70.001 Y84.736 E.00484
G1 X70.123 Y84.692 E.00386
G1 X72.051 Y84.701 E.05743
G1 X72.537 Y84.765 E.0146
G1 X73.03 Y84.928 E.01547
G1 X73.113 Y85.084 E.00526
;WIDTH:0.459636
G1 X73.128 Y85.219 E.00447
;WIDTH:0.499273
G1 X73.143 Y85.354 E.0049
;WIDTH:0.53891
G1 X73.158 Y85.488 E.00528
;WIDTH:0.578546
G1 X73.173 Y85.623 E.00575
G1 X73.257 Y85.522 E.00556
;WIDTH:0.53891
G1 X73.342 Y85.422 E.00514
;WIDTH:0.499273
G1 X73.426 Y85.321 E.00474
;WIDTH:0.459636
G1 X73.51 Y85.22 E.00432
;WIDTH:0.419999
G1 X73.736 Y84.949 E.01051
G1 X74.133 Y84.722 E.01362
G1 X74.557 Y84.638 E.01287
G1 X74.98 Y84.663 E.01262
G1 X75.328 Y84.761 E.01077
G1 X75.64 Y84.934 E.01063
G1 X75.898 Y85.186 E.01074
;WIDTH:0.43562
G1 X76.122 Y85.58 E.01406
G1 X76.247 Y86.077 E.0159
;WIDTH:0.419999
G1 X76.362 Y86.47 E.0122
G1 X76.403 Y86.96 E.01465
G1 X76.372 Y87.343 E.01145
G1 X76.294 Y87.676 E.01019
G1 X76.054 Y88.156 E.01599
G1 X75.718 Y88.525 E.01487
G1 X75.372 Y88.724 E.01189
G1 X75.064 Y88.824 E.00965
G1 X74.633 Y88.863 E.01289
G1 X74.226 Y88.813 E.01221
G1 X73.779 Y88.619 E.01451
G1 X73.487 Y88.3 E.01288
G1 X73.372 Y88.054 E.00809
;WIDTH:0.385947
G1 X73.257 Y87.807 E.00738
;WIDTH:0.376421
G1 X73.166 Y87.621 E.00546
;WIDTH:0.417267
G1 X72.997 Y87.465 E.0068
;WIDTH:0.419999
G1 X72.97 Y87.387 E.00246
M204 P1000
G1 X72.514 Y87.298 F9000
M204 P600
;TYPE:Perimeter
;WIDTH:0.543166
G1 F1200
G1 X72.589 Y87.177 E.00563
;WIDTH:0.506117
G1 X72.664 Y87.056 E.00521
;WIDTH:0.469068
G1 X72.739 Y86.935 E.00479
;WIDTH:0.47957
G1 X72.807 Y86.859 E.00352
;WIDTH:0.527122
G1 X72.875 Y86.784 E.00387
G1 X73.035 Y86.783 E.00612
;WIDTH:0.481477
G1 X73.195 Y86.782 E.00554
;WIDTH:0.435832
G1 X73.356 Y86.781 E.005
;WIDTH:0.390187
G1 X73.516 Y86.78 E.00439
M204 P1000
G1 X74.587 Y86.708 F9000
M204 P600
;WIDTH:0.59882
G1 F1200
G1 X74.517 Y86.708 E.00307
G1 X74.482 Y86.768 E.00305
G1 X74.517 Y86.828 E.00305
G1 X74.587 Y86.828 E.00307
G1 X74.621 Y86.768 E.00303
M204 P1000
G1 E-2.24 F4200
;WIPE_START
G1 F7200
G1 X74.587 Y86.828 E-.03822
G1 X74.517 Y86.828 E-.03879
G1 X74.482 Y86.768 E-.03849
G1 X74.517 Y86.708 E-.03849
G1 X74.587 Y86.708 E-.03879
;WIPE_END
G1 E-.76722 F4200
G1 Z.4 F720
M73 P2 R30
G1 X77.66 Y86.023 F9000
G1 Z.2 F720
G1 E3.2 F2400
M204 P600
;TYPE:External perimeter
;WIDTH:0.419999
G1 F1200
G1 X77.166 Y86.111 E.01495
G1 X76.713 Y86.054 E.0136
G1 X76.577 Y85.918 E.00573
;WIDTH:0.431913
G1 X76.499 Y85.419 E.01552
G1 X76.468 Y84.92 E.01536
;WIDTH:0.419999
G1 X76.525 Y84.771 E.00475
G1 X76.656 Y84.718 E.00421
G1 X77.643 Y84.718 E.0294
G1 X77.777 Y84.774 E.00433
G1 X77.828 Y84.944 E.00529
;WIDTH:0.443419
G1 X77.786 Y85.51 E.01796
G1 X77.735 Y85.889 E.0121
;WIDTH:0.41817
G1 X77.69 Y85.97 E.00275
M204 P1000
G1 E-2.24 F4200
;WIPE_START
G1 F7200
G1 X77.166 Y86.111 E-.30071
G1 X76.713 Y86.054 E-.25302
G1 X76.577 Y85.918 E-.10658
G1 X76.499 Y85.419 E-.27989
G1 X76.497 Y85.383 E-.0198
;WIPE_END
G1 Z.4 F720
G1 X89.531 Y89.705 F9000
G1 Z.2 F720
G1 E3.2 F2400
M204 P600
;WIDTH:0.419999
G1 F1200
G1 X89.035 Y89.78 E.01494
G1 X88.534 Y89.797 E.01493
G1 X88.379 Y89.725 E.00509
G1 X88.339 Y89.609 E.00365
G1 X88.326 Y85.984 E.10798
G1 X87.428 Y85.975 E.02675
G1 X86.937 Y85.911 E.01475
G1 X86.486 Y85.772 E.01406
G1 X86.363 Y85.606 E.00615
G1 X86.19 Y86.053 E.01428
G1 X86.124 Y86.493 E.01325
G1 X85.842 Y87.403 E.02838
G1 X84.911 Y89.692 E.07361
G1 X84.833 Y89.783 E.00357
G1 X84.124 Y89.81 E.02113
G1 X83.677 Y89.782 E.01334
G1 X83.601 Y89.691 E.00353
G1 X82.685 Y87.4 E.07349
;WIDTH:0.469455
G1 X82.498 Y86.933 E.01695
G1 X82.305 Y86.045 E.03062
;WIDTH:0.472883
